svg/u1f4ba.svg

<svg viewBox="0 0 128 128" xmlns="http://www.w3.org/2000/svg">
  <path d="M40.2,98.48c0.19,0.86,0.11,3.21,0.11,4.45c0,1.24,0.1,8.77,0.1,8.77s-6.67-1.24-8.68-1.24 c-2,0-4.85,1.25-5.05,3.62c-0.19,2.19,1.14,2.76,2.86,3.24c1.72,0.48,30.7,6.1,32.13,6.39s4.21-0.11,4.58-2.48 c0.2-1.33-0.57-3.37-3.34-4.77c-2.25-1.14-11.44-3.24-11.44-3.24l-0.1-13.25L40.2,98.48z" fill="#858585"/>
  <path d="M77.4,100.93c0,0-1.14,0.76-1.14,2.1c0,1.33,1.08,1.48,3.81,2.1c4.2,0.95,21.64,3.72,23.45,4 s4.55,0.57,4.29-1.91c-0.29-2.76-2.19-4.29-7.53-5.72c-4.49-1.2-6.52-1.27-6.96-1.91C92.47,98.35,93.18,95,93.18,95l-15.21,2.78 L77.4,100.93z" fill="#858585"/>
  <path d="M27.25,90.25c0,0,0.67,3.53,3.91,5.63c3.24,2.1,10.11,4.2,15.92,5.63c5.82,1.43,12.68,2.86,16.4,2.57 c3.72-0.29,12.11-1.91,24.79-5.82c12.68-3.91,17.64-6.67,18.21-7.91c0.77-1.67,0.19-5.34,0.19-5.34l-20.5-6.29L27.25,90.25z" fill="#9B9B9B"/>
  <path d="M106.36,78.92c0,0,0.37,1.79,0.45,3.07c0.07,1.27,0.11,2.6-0.13,3.02s-4.88,2.74-15.12,5.88 c-10.24,3.14-25.05,6.8-27.14,6.43c-2.09-0.37-0.52-9.87-0.52-9.87L106.36,78.92z" fill="#172789"/>
  <path d="M84.83,67.78c0,0-0.68-2.05-0.15-3.11s2.42-1.21,5.76-1.06c3.33,0.15,14.19,1.16,15.33,1.27 c0.92,0.08,1.78-0.84,1.78-0.84l-1.43-5.96l-20.69-3.69l-12.56-0.17l2.12,17.35L84.83,67.78z" fill="#B0B0B0"/>
  <path d="M105.74,64.9c0,0,0.98-2.5-0.38-4.09c-1.61-1.87-14.7-1.97-17.04-2.12 c-2.35-0.15-5.73-0.07-5.61-2.42c0.13-2.54,2.74-1.82,6.24-1.68c3.57,0.14,14.27,1.09,16.64,1.91c2.13,0.74,3,1.74,3.4,2.6 c0.54,1.16,0.74,3.24-0.27,4.51C107.36,65.31,105.74,64.9,105.74,64.9z" fill="#858585"/>
  <path d="M63.77,90.43c0,0,6.28-0.24,11.37-0.95c5.09-0.71,22.75-5.47,26.21-6.69c3.46-1.22,5.3-2.34,5.3-2.34 s-1.12-6.93-2.14-8.76c-1.02-1.83-8.39-3.39-13.44-4.07c-4.48-0.61-14.16-0.31-14.16-0.31L44.01,72l-13.92,5.38l27.47,6.64 L63.77,90.43z" fill="#024FAC"/>
  <path d="M31.12,77.48c0,0,7.2,0.15,15.61,1.29c8.41,1.14,13.1,2.12,15.98,4.77c1.89,1.74,2.49,4.78,2.8,8.41 c0.3,3.49,1.2,6.3-3.64,5.45c-3.73-0.65-6.97-4.85-7.58-5s-21.67-7.35-21.67-7.35L31.12,77.48z" fill="#0C66C8"/>
  <path d="M77.6,65.01c0,0,0.27,1.65,0.3,2.34c0.01,0.35-3.16,1-4.52,1.25c-3.55,0.64-14.01,2.59-16.28,2.97 s-25.32,6.02-25.32,6.02l-3.7-1.4l2.12-4.62c0,0,24.7-9.14,28.26-9.7C66.2,60.66,77.6,65.01,77.6,65.01z" fill="#172B86"/>
  <path d="M53.47,67.75c0,0,6.5-0.77,12-1.41c4.31-0.51,12.13-1.28,12.13-1.28s-0.61-5.4-1.93-10.13 c-1.29-4.63-4.17-8.63-5.17-13.47c-0.53-2.57-1.08-5.93-1.08-5.93l-15.19-5.39c0,0-29.52,6.03-29.63,6.68 c-0.11,0.65,0.75,29.85,0.75,29.85L53.47,67.75z" fill="#024FAC"/>
  <path d="M25.35,38.87c0,0,7.11,0.11,13.47-0.65c6.36-0.75,11.64-1.51,16.7-1.83 c5.06-0.32,13.9-0.86,13.9-0.86s-0.22-3.66-0.11-4.09s1.66-2.24,2.23-3.24s1.01-2.14,1.19-2.7c0.19-0.57-2.2-8.74-2.2-8.74 L39.61,6.83L26.79,7.58L25.03,32.4L25.35,38.87z" fill="#182B85"/>
  <path d="M27.67,29.33c0,0,9.27-1.04,9.59-1.29c0.31-0.25,0.29-9.21-0.04-11.65 c-0.54-4.03-1.41-8.73-1.41-9.04s-2.43-1.96-2.43-1.96l-8.23,5.09L27.67,29.33z" fill="#024FAC"/>
  <path d="M65.85,19.37c0,0,0.58,3.95,0.54,5.43c-0.01,0.38-0.13,1.38,0.25,1.38c0.38,0,6.1-0.69,6.1-0.69 s1.07-4.78-0.38-10.56s-3.96-8.42-3.96-8.42l-9.43,0.13L65.85,19.37z" fill="#024FAC"/>
  <path d="M61.8,7.58l7.42-0.06c0,0-0.94-2.07-2.58-2.77C65,4.06,57.14,4.38,57.14,4.38L34.08,4.63 c0,0-8.17,0.44-10.87,2.26s-3.27,4.4-3.78,6.62c-0.32,1.41-0.79,12.57-0.65,23.38c0.19,15.11,1.75,25.46,1.75,25.46l4.31,5.96 l4.86-5.22c0,0,0.37-7.97-0.73-13.93s-2.57-10.24-2.57-10.24s3.22-3.87,3.22-14.77S28.68,9.2,28.68,9.2s2.8-0.42,5.31-0.73 C35.54,8.28,61.8,7.58,61.8,7.58z" fill="#0C66C8"/>
  <path d="M39.86,27.8c0.47,0.47,24.83-2.11,25.29-2.38c0.46-0.27,1.71-4.22,0.82-9.44 c-1.37-8.06-6.1-12.11-6.1-12.11S33.49,3.99,33.22,4.36c-0.27,0.37,4.09,3.21,5.64,11.45C40.23,23.13,39.4,27.35,39.86,27.8z" fill="#E0E0E0"/>
  <path d="M61.88,97.4c0,0-6.62,0.41-16.43-1.79c-8.74-1.96-16.79-4.31-18.2-5.36 c-1.41-1.05-4.19-10.64-5.44-16.72c-1.19-5.77-1.93-10.87-1.28-11.18c1.12-0.54,14.75,0.92,14.75,0.92l24.49,7.58l-4.06,4.89 L31.8,74.81c0,0,0.18,4.58,2.75,7.42c1.84,2.04,3.94,2.84,9.99,3.3c6.05,0.46,12.64,1.01,15.48,4.4 C63.16,93.68,61.88,97.4,61.88,97.4z" fill="#B0B0B0"/>
  <path d="M35.28,63.26c-1.01-0.09-2.29,0.46-2.66,2.38c-0.42,2.21,1.83,3.21,5.41,3.39 c3.11,0.16,9.45,0.79,11.93,0.93c2.53,0.15,5.9,0.78,6.36,2.43c0.46,1.65-0.61,3.33-0.61,3.33s2.13,0.04,3.09-0.27 c1.3-0.42,2.04-2.11,1.95-3.76s-1.1-3.85-5.41-5.31C51.04,64.91,35.28,63.26,35.28,63.26z" fill="#858585"/>
</svg>

<svg viewBox="0 0 128 128" xmlns="http://www.w3.org/2000/svg">
  <defs/>
  <path d="M40.2,98.48 C40.39,99.34 40.31,101.69 40.31,102.93 C40.31,104.17 40.41,111.7 40.41,111.7 C40.41,111.7 33.74,110.46 31.73,110.46 C29.73,110.46 26.88,111.71 26.68,114.08 C26.49,116.27 27.82,116.84 29.54,117.32 C31.26,117.8 60.24,123.42 61.67,123.71 C63.1,124 65.88,123.6 66.25,121.23 C66.45,119.9 65.68,117.86 62.91,116.46 C60.66,115.32 51.47,113.22 51.47,113.22 L51.37,99.97 L40.2,98.48 Z" fill="#858585"/>
  <path d="M77.4,100.93 C77.4,100.93 76.26,101.69 76.26,103.03 C76.26,104.36 77.34,104.51 80.07,105.13 C84.27,106.08 101.71,108.85 103.52,109.13 C105.33,109.41 108.07,109.7 107.81,107.22 C107.52,104.46 105.62,102.93 100.28,101.5 C95.79,100.3 93.76,100.23 93.32,99.59 C92.47,98.35 93.18,95 93.18,95 L77.97,97.78 L77.4,100.93 Z" fill="#858585"/>
  <path d="M27.25,90.25 C27.25,90.25 27.92,93.78 31.16,95.88 C34.4,97.98 41.27,100.08 47.08,101.51 C52.9,102.94 59.76,104.37 63.48,104.08 C67.2,103.79 75.59,102.17 88.27,98.26 C100.95,94.35 105.91,91.59 106.48,90.35 C107.25,88.68 106.67,85.01 106.67,85.01 L86.17,78.72 L27.25,90.25 Z" fill="#9B9B9B"/>
  <path d="M106.36,78.92 C106.36,78.92 106.73,80.71 106.81,81.99 C106.88,83.26 106.92,84.59 106.68,85.01 C106.44,85.43 101.8,87.75 91.56,90.89 C81.32,94.03 66.51,97.69 64.42,97.32 C62.33,96.95 63.9,87.45 63.9,87.45 L106.36,78.92 Z" fill="#172789"/>
  <path d="M84.83,67.78 C84.83,67.78 84.15,65.73 84.68,64.67 C85.21,63.61 87.1,63.46 90.44,63.61 C93.77,63.76 104.63,64.77 105.77,64.88 C106.69,64.96 107.55,64.04 107.55,64.04 L106.12,58.08 L85.43,54.39 L72.87,54.22 L74.99,71.57 L84.83,67.78 Z" fill="#B0B0B0"/>
  <path d="M105.74,64.9 C105.74,64.9 106.72,62.4 105.36,60.81 C103.75,58.94 90.66,58.84 88.32,58.69 C85.97,58.54 82.59,58.62 82.71,56.27 C82.84,53.73 85.45,54.45 88.95,54.59 C92.52,54.73 103.22,55.68 105.59,56.5 C107.72,57.24 108.59,58.24 108.99,59.1 C109.53,60.26 109.73,62.34 108.72,63.61 C107.36,65.31 105.74,64.9 105.74,64.9 Z" fill="#858585"/>
  <path d="M63.77,90.43 C63.77,90.43 70.05,90.19 75.14,89.48 C80.23,88.77 97.89,84.01 101.35,82.79 C104.81,81.57 106.65,80.45 106.65,80.45 C106.65,80.45 105.53,73.52 104.51,71.69 C103.49,69.86 96.12,68.3 91.07,67.62 C86.59,67.01 76.91,67.31 76.91,67.31 L44.01,72 L30.09,77.38 L57.56,84.02 L63.77,90.43 Z" fill="#024FAC"/>
  <path d="M31.12,77.48 C31.12,77.48 38.32,77.63 46.73,78.77 C55.14,79.91 59.83,80.89 62.71,83.54 C64.6,85.28 65.2,88.32 65.51,91.95 C65.81,95.44 66.71,98.25 61.87,97.4 C58.14,96.75 54.9,92.55 54.29,92.4 C53.68,92.25 32.62,85.05 32.62,85.05 L31.12,77.48 Z" fill="#0C66C8"/>
  <path d="M77.6,65.01 C77.6,65.01 77.87,66.66 77.9,67.35 C77.91,67.7 74.74,68.35 73.38,68.6 C69.83,69.24 59.37,71.19 57.1,71.57 C54.83,71.95 31.78,77.59 31.78,77.59 L28.08,76.19 L30.2,71.57 C30.2,71.57 54.9,62.43 58.46,61.87 C66.2,60.66 77.6,65.01 77.6,65.01 Z" fill="#172B86"/>
  <path d="M53.47,67.75 C53.47,67.75 59.97,66.98 65.47,66.34 C69.78,65.83 77.6,65.06 77.6,65.06 C77.6,65.06 76.99,59.66 75.67,54.93 C74.38,50.3 71.5,46.3 70.5,41.46 C69.97,38.89 69.42,35.53 69.42,35.53 L54.23,30.14 C54.23,30.14 24.71,36.17 24.6,36.82 C24.49,37.47 25.35,66.67 25.35,66.67 L53.47,67.75 Z" fill="#024FAC"/>
  <path d="M25.35,38.87 C25.35,38.87 32.46,38.98 38.82,38.22 C45.18,37.47 50.46,36.71 55.52,36.39 C60.58,36.07 69.42,35.53 69.42,35.53 C69.42,35.53 69.2,31.87 69.31,31.44 C69.42,31.01 70.97,29.2 71.54,28.2 C72.11,27.2 72.55,26.06 72.73,25.5 C72.92,24.93 70.53,16.76 70.53,16.76 L39.61,6.83 L26.79,7.58 L25.03,32.4 L25.35,38.87 Z" fill="#182B85"/>
  <path d="M27.67,29.33 C27.67,29.33 36.94,28.29 37.26,28.04 C37.57,27.79 37.55,18.83 37.22,16.39 C36.68,12.36 35.81,7.66 35.81,7.35 C35.81,7.04 33.38,5.39 33.38,5.39 L25.15,10.48 L27.67,29.33 Z" fill="#024FAC"/>
  <path d="M65.85,19.37 C65.85,19.37 66.43,23.32 66.39,24.8 C66.38,25.18 66.26,26.18 66.64,26.18 C67.02,26.18 72.74,25.49 72.74,25.49 C72.74,25.49 73.81,20.71 72.36,14.93 C70.91,9.15 68.4,6.51 68.4,6.51 L58.97,6.64 L65.85,19.37 Z" fill="#024FAC"/>
  <path d="M61.8,7.58 L69.22,7.52 C69.22,7.52 68.28,5.45 66.64,4.75 C65,4.06 57.14,4.38 57.14,4.38 L34.08,4.63 C34.08,4.63 25.91,5.07 23.21,6.89 C20.51,8.71 19.94,11.29 19.43,13.51 C19.11,14.92 18.64,26.08 18.78,36.89 C18.97,52 20.53,62.35 20.53,62.35 L24.84,68.31 L29.7,63.09 C29.7,63.09 30.07,55.12 28.97,49.16 C27.87,43.2 26.4,38.92 26.4,38.92 C26.4,38.92 29.62,35.05 29.62,24.15 C29.62,13.25 28.68,9.2 28.68,9.2 C28.68,9.2 31.48,8.78 33.99,8.47 C35.54,8.28 61.8,7.58 61.8,7.58 Z" fill="#0C66C8"/>
  <path d="M39.86,27.8 C40.33,28.27 64.69,25.69 65.15,25.42 C65.61,25.15 66.86,21.2 65.97,15.98 C64.6,7.92 59.87,3.87 59.87,3.87 C59.87,3.87 33.49,3.99 33.22,4.36 C32.95,4.73 37.31,7.57 38.86,15.81 C40.23,23.13 39.4,27.35 39.86,27.8 Z" fill="#E0E0E0"/>
  <path d="M61.88,97.4 C61.88,97.4 55.26,97.81 45.45,95.61 C36.71,93.65 28.66,91.3 27.25,90.25 C25.84,89.2 23.06,79.61 21.81,73.53 C20.62,67.76 19.88,62.66 20.53,62.35 C21.65,61.81 35.28,63.27 35.28,63.27 L59.77,70.85 L55.71,75.74 L31.8,74.81 C31.8,74.81 31.98,79.39 34.55,82.23 C36.39,84.27 38.49,85.07 44.54,85.53 C50.59,85.99 57.18,86.54 60.02,89.93 C63.16,93.68 61.88,97.4 61.88,97.4 Z" fill="#B0B0B0"/>
  <path d="M35.28,63.26 C34.27,63.17 32.99,63.72 32.62,65.64 C32.2,67.85 34.45,68.85 38.03,69.03 C41.14,69.19 47.48,69.82 49.96,69.96 C52.49,70.11 55.86,70.74 56.32,72.39 C56.78,74.04 55.71,75.72 55.71,75.72 C55.71,75.72 57.84,75.76 58.8,75.45 C60.1,75.03 60.84,73.34 60.75,71.69 C60.66,70.04 59.65,67.84 55.34,66.38 C51.04,64.91 35.28,63.26 35.28,63.26 Z" fill="#858585"/>
</svg>
